img/svg/net/icab.svg

<?xml version="1.0" encoding="iso-8859-1"?>
<!-- Generator: Adobe Illustrator 21.0.2, SVG Export Plug-In . SVG Version: 6.00 Build 0)  -->
<svg version="1.1" id="&#x56FE;&#x5C42;_1" xmlns="http://www.w3.org/2000/svg" xmlns:xlink="http://www.w3.org/1999/xlink" x="0px"
	 y="0px" viewBox="0 0 16 16" style="enable-background:new 0 0 16 16;" xml:space="preserve">
<path d="M1,1v14h14V1H1z M14,7.747C14,7.887,13.887,8,13.747,8h-1.393L12,8.354v2.394C12,10.887,11.887,11,11.747,11H9.253
	C9.113,11,9,10.887,9,10.747V8.354L8.646,8h-1.23L7,8.416v2.331C7,10.887,6.887,11,6.747,11H4.253C4.113,11,4,10.887,4,10.747V8.354
	L3.646,8H2.253C2.113,8,2,7.887,2,7.747V6.253C2,6.113,2.113,6,2.253,6h1.494C3.887,6,4,6.113,4,6.253v1.393L4.354,8h2.355L7,7.709
	V6.253C7,6.113,7.113,6,7.253,6h1.494C8.887,6,9,6.113,9,6.253v1.393L9.354,8h2.293L12,7.646V6.253C12,6.113,12.113,6,12.253,6
	h1.494C13.887,6,14,6.113,14,6.253V7.747z"/>
</svg>

<svg xmlns="http://www.w3.org/2000/svg" viewBox="0 0 16 16"><title>icab</title><path d="M1,1V15H15V1ZM14,7.75a.25.25,0,0,1-.25.25H12.35L12,8.35v2.39a.25.25,0,0,1-.25.25H9.25A.25.25,0,0,1,9,10.75V8.35L8.65,8H7.42L7,8.42v2.33a.25.25,0,0,1-.25.25H4.25A.25.25,0,0,1,4,10.75V8.35L3.65,8H2.25A.25.25,0,0,1,2,7.75V6.25A.25.25,0,0,1,2.25,6H3.75A.25.25,0,0,1,4,6.25V7.65L4.35,8H6.71L7,7.71V6.25A.25.25,0,0,1,7.25,6H8.75A.25.25,0,0,1,9,6.25V7.65L9.35,8h2.29L12,7.65V6.25A.25.25,0,0,1,12.25,6h1.49a.25.25,0,0,1,.25.25Z"/></svg>
